assets/img/braze_icons/currency-yen-circle.svg

<svg fill="none" height="24" viewBox="0 0 24 24" width="24" xmlns="http://www.w3.org/2000/svg"><path clip-rule="evenodd" d="m12 1c-6.07513 0-11 4.92487-11 11 0 6.0751 4.92487 11 11 11 6.0751 0 11-4.9249 11-11 0-6.07513-4.9249-11-11-11zm-4.62472 5.21917c.43126-.34501 1.06055-.27509 1.40556.15617l3.21916 4.02396 3.2191-4.02396c.345-.43126.9743-.50118 1.4056-.15617.4312.34501.5012.9743.1561 1.40556l-2.7002 3.37527h1.9194c.5523 0 1 .4477 1 1s-.4477 1-1 1h-3v1h2.5c.5523 0 1 .4477 1 1s-.4477 1-1 1h-2.5v2c0 .5523-.4477 1-1 1s-1-.4477-1-1v-2h-2.5c-.55228 0-1-.4477-1-1s.44772-1 1-1h2.5v-1h-3c-.55228 0-1-.4477-1-1s.44772-1 1-1h1.91932l-2.70021-3.37527c-.34501-.43126-.27509-1.06055.15617-1.40556z" fill="#801ed7" fill-rule="evenodd"/></svg>

<svg width="24" height="24" viewBox="0 0 24 24" fill="none" xmlns="http://www.w3.org/2000/svg">
<path fill-rule="evenodd" clip-rule="evenodd" d="M12 1C5.92487 1 1 5.92487 1 12C1 18.0751 5.92487 23 12 23C18.0751 23 23 18.0751 23 12C23 5.92487 18.0751 1 12 1ZM7.37528 6.21917C7.80654 5.87416 8.43583 5.94408 8.78084 6.37534L12 10.3993L15.2191 6.37534C15.5641 5.94408 16.1934 5.87416 16.6247 6.21917C17.0559 6.56418 17.1259 7.19347 16.7808 7.62473L14.0806 11H16C16.5523 11 17 11.4477 17 12C17 12.5523 16.5523 13 16 13H13V14H15.5C16.0523 14 16.5 14.4477 16.5 15C16.5 15.5523 16.0523 16 15.5 16H13V18C13 18.5523 12.5523 19 12 19C11.4477 19 11 18.5523 11 18V16H8.5C7.94772 16 7.5 15.5523 7.5 15C7.5 14.4477 7.94772 14 8.5 14H11V13H8C7.44772 13 7 12.5523 7 12C7 11.4477 7.44772 11 8 11H9.91932L7.21911 7.62473C6.8741 7.19347 6.94402 6.56418 7.37528 6.21917Z" fill="#801ED7"/>
</svg>
